X:36
T:Schottis efter C A Lindblom
R:schottis
A:\"Osterg\"otland
Z:id:hn-schottis-36
M:C|
L:1/8
K:G
G2GA B2Bc | d2de d2B2 | c2cd c2A2 | d2dc B2D2 |
G2GA B2Bc | d2de d2B2 | c2cd c2BA | A2G2G2 z2 :|
|: G2cc c2e2 | G2BB B2d2 | DA[FD]A DA[FD]A | G2Bd g4 |
G2cc c2e2 | G2BB B2d2 | DA[FD]A DA[FD]A | G2[g2B2] [g4B4d4] :|
